icons/chevrons-bar-out-horizontal.svg

<svg xmlns="http://www.w3.org/2000/svg" width="24" height="24" viewBox="0 0 24 24">
  <path d="M7.38710056,16.2097046 C7.77939176,15.9046797 8.34662282,15.9324093 8.70710678,16.2928932 L8.70710678,16.2928932 L12,19.585 L15.2928932,16.2928932 L15.3871006,16.2097046 C15.7793918,15.9046797 16.3466228,15.9324093 16.7071068,16.2928932 C17.0976311,16.6834175 17.0976311,17.3165825 16.7071068,17.7071068 L16.7071068,17.7071068 L12.7071068,21.7071068 L12.6128994,21.7902954 C12.2206082,22.0953203 11.6533772,22.0675907 11.2928932,21.7071068 L11.2928932,21.7071068 L7.29289322,17.7071068 L7.20970461,17.6128994 C6.90467972,17.2206082 6.93240926,16.6533772 7.29289322,16.2928932 L7.29289322,16.2928932 Z M3,11 L21,11 C21.5522847,11 22,11.4477153 22,12 C22,12.5128358 21.6139598,12.9355072 21.1166211,12.9932723 L21,13 L3,13 C2.44771525,13 2,12.5522847 2,12 C2,11.4871642 2.38604019,11.0644928 2.88337887,11.0067277 L3,11 Z M12.6128994,2.20970461 L12.7071068,2.29289322 L16.7071068,6.29289322 C17.0976311,6.68341751 17.0976311,7.31658249 16.7071068,7.70710678 C16.3466228,8.06759074 15.7793918,8.09532028 15.3871006,7.79029539 L15.2928932,7.70710678 L12,4.415 L8.70710678,7.70710678 C8.34662282,8.06759074 7.77939176,8.09532028 7.38710056,7.79029539 L7.29289322,7.70710678 C6.93240926,7.34662282 6.90467972,6.77939176 7.20970461,6.38710056 L7.29289322,6.29289322 L11.2928932,2.29289322 C11.6533772,1.93240926 12.2206082,1.90467972 12.6128994,2.20970461 Z"/>
</svg>

<svg xmlns="http://www.w3.org/2000/svg" viewBox="0 0 24 24">
  <path d="M7.39 16.21a1 1 0 0 1 1.32.08L12 19.6l3.3-3.3.09-.08a1 1 0 0 1 1.32 1.5l-4 4-.1.08a1 1 0 0 1-1.32-.08l-4-4-.08-.1a1 1 0 0 1 .08-1.32zM3 11h18a1 1 0 0 1 .12 2H3a1 1 0 0 1-.12-2H3zm9.61-8.79.1.08 4 4a1 1 0 0 1-1.32 1.5l-.1-.08L12 4.4 8.7 7.7a1 1 0 0 1-1.31.08l-.1-.08a1 1 0 0 1-.08-1.32l.08-.1 4-4a1 1 0 0 1 1.32-.08z"/>
</svg>
